packages/icons/src/components/Logo/assets/light/kibana.svg

<svg width="20" height="20" viewBox="0 0 20 20" fill="none" xmlns="http://www.w3.org/2000/svg">
<path d="M2.79091 7.49092C5.44546 7.49092 7.95455 8.18183 10.1364 9.34546L17.9182 0H2.5V18.5455V7.49092H2.79091Z" fill="#E9478B"/>
<path d="M10.1364 9.34546L2.5 18.5455V20H17.8818C17.0091 15.4182 14.1 11.5273 10.1364 9.34546Z" fill="#3EBEB0"/>
<path d="M10.1364 9.34546L2.5 18.5455V20H5.22729L12.6455 11.0545C12.6455 11.0545 12.1364 10.6545 11.4455 10.1454C10.9364 9.78181 10.1364 9.34546 10.1364 9.34546Z" fill="#37A595"/>
<path d="M2.79091 7.49092H2.5V18.5455L10.1364 9.34546C7.95455 8.18183 5.44546 7.49092 2.79091 7.49092Z" fill="#353535"/>
</svg>

<svg xmlns="http://www.w3.org/2000/svg" width="20" height="20" fill="none" viewBox="0 0 20 20">
    <path fill="#e9478b" d="M2.79 7.49c2.655 0 5.165.692 7.346 1.855L17.918 0H2.5v18.546V7.49z"/>
    <path fill="#3ebeb0" d="m10.136 9.345-7.636 9.2V20h15.382a15.52 15.52 0 0 0-7.746-10.655"/>
    <path fill="#37a595" d="m10.136 9.345-7.636 9.2V20h2.727l7.419-8.945s-.51-.4-1.2-.91c-.51-.363-1.31-.8-1.31-.8"/>
    <path fill="#353535" d="M2.79 7.49H2.5v11.056l7.636-9.2A15.6 15.6 0 0 0 2.791 7.49"/>
</svg>
